styles/3/Numix/32/places/pink-folder-download.svg

<?xml version="1.0" encoding="UTF-8" standalone="no"?>
<!-- Created with Inkscape (http://www.inkscape.org/) -->

<svg
   xmlns:dc="http://purl.org/dc/elements/1.1/"
   xmlns:cc="http://creativecommons.org/ns#"
   xmlns:rdf="http://www.w3.org/1999/02/22-rdf-syntax-ns#"
   xmlns:svg="http://www.w3.org/2000/svg"
   xmlns="http://www.w3.org/2000/svg"
   xmlns:sodipodi="http://sodipodi.sourceforge.net/DTD/sodipodi-0.dtd"
   xmlns:inkscape="http://www.inkscape.org/namespaces/inkscape"
   width="32"
   height="32"
   id="svg2"
   version="1.1"
   inkscape:version="0.91 r"
   sodipodi:docname="pink-folder-download.svg"
   inkscape:export-filename="/media/Data/Main/Visuals/Icons/Numix/Desktop/repos/numix-wiki/Gjorgi/Numix-folders/48/New/folder-144.png"
   inkscape:export-xdpi="270"
   inkscape:export-ydpi="270">
  <defs
     id="defs4" />
  <sodipodi:namedview
     id="base"
     pagecolor="#ffffff"
     bordercolor="#666666"
     borderopacity="1.0"
     inkscape:pageopacity="0.0"
     inkscape:pageshadow="2"
     inkscape:zoom="10.883917"
     inkscape:cx="-25.835696"
     inkscape:cy="3.0597765"
     inkscape:document-units="px"
     inkscape:current-layer="layer1"
     showgrid="true"
     inkscape:window-width="1280"
     inkscape:window-height="998"
     inkscape:window-x="0"
     inkscape:window-y="0"
     inkscape:window-maximized="1"
     showguides="true"
     inkscape:guide-bbox="true">
    <inkscape:grid
       type="xygrid"
       id="grid2985"
       empspacing="5"
       visible="true"
       enabled="true"
       snapvisiblegridlinesonly="true" />
  </sodipodi:namedview>
  <metadata
     id="metadata7">
    <rdf:RDF>
      <cc:Work
         rdf:about="">
        <dc:format>image/svg+xml</dc:format>
        <dc:type
           rdf:resource="http://purl.org/dc/dcmitype/StillImage" />
        <dc:title />
      </cc:Work>
    </rdf:RDF>
  </metadata>
  <g
     inkscape:label="Layer 1"
     inkscape:groupmode="layer"
     id="layer1"
     transform="translate(0,-1020.3622)">
    <rect
       style="fill:#ec407a;fill-opacity:1;stroke:none"
       id="rect3757"
       width="26"
       height="10"
       x="3"
       y="1026.3622" />
    <path
       style="fill:#ec407a;fill-opacity:1;stroke:none"
       d="m 6,1026.3622 c 0,-1 0,-2 1.4545454,-2 l 5.0909096,0 c 1.454545,0 1.454545,1 1.454545,2 l 0,1 -8,0 z"
       id="path3759"
       inkscape:connector-curvature="0"
       sodipodi:nodetypes="ccccccc" />
    <path
       style="fill:#95989f;fill-opacity:1;stroke:none"
       d="m 5,1028.3622 22,0 0,4.9677 -22,0 z"
       id="path3765"
       inkscape:connector-curvature="0" />
    <rect
       y="1027.3622"
       x="7"
       height="12.999977"
       width="19"
       id="rect3763"
       style="fill:#d8d8da;fill-opacity:1;stroke:none" />
    <rect
       style="fill:#f9f9f9;fill-opacity:1;stroke:none"
       id="rect3761"
       width="19"
       height="12.999977"
       x="6"
       y="1029.3622" />
    <path
       style="fill:#f06292;fill-opacity:1;stroke:none"
       d="m 1,1030.3622 30,0 -2.142857,18 -25.7142859,0 z"
       id="path2987"
       inkscape:connector-curvature="0"
       sodipodi:nodetypes="ccccc" />
    <path
       style="opacity:1.0;fill:#c64077;fill-opacity:1;stroke:none"
       d="M 16 12 C 15.446 12 15 12.446 15 13 L 15 18 L 13 18 C 12 18 12 18 13 19 L 15 21 C 16 22 16 22 17 21 L 19 19 C 20 18 20 18 19 18 L 17 18 L 17 13 C 17 12.446 16.554 12 16 12 z M 9.96875 19 C 9.4344431 19 9 19.446 9 20 L 9 23.9375 L 9 24 L 9 24.0625 C 9 24.099036 9.0270869 24.120807 9.03125 24.15625 C 9.0461095 24.246873 9.0571815 24.325799 9.09375 24.40625 C 9.1945779 24.628073 9.3750493 24.810656 9.59375 24.90625 C 9.6947752 24.951606 9.7898768 24.989113 9.90625 25 C 9.9390644 25.00307 9.9663108 25 10 25 L 10.03125 25 L 21.96875 25 L 22 25 C 22.01123 25 22.020112 25.000346 22.03125 25 C 22.052203 25 22.073137 25.001351 22.09375 25 C 22.210123 24.989113 22.305225 24.951606 22.40625 24.90625 C 22.521713 24.855781 22.631588 24.809125 22.71875 24.71875 C 22.809125 24.632658 22.855781 24.520295 22.90625 24.40625 C 22.942819 24.325799 22.953891 24.246873 22.96875 24.15625 C 22.974304 24.122379 22.997796 24.097463 23 24.0625 L 23 23.9375 L 23 20 C 23 19.446 22.565557 19 22.03125 19 L 21.96875 19 C 21.434443 19 21 19.446 21 20 L 21 23 L 11 23 L 11 20 C 11 19.446 10.565557 19 10.03125 19 L 9.96875 19 z "
       transform="translate(0,1020.3622)"
       id="rect2989" />
  </g>
</svg>

<!-- Created with Inkscape (http://www.inkscape.org/) -->
<svg xmlns="http://www.w3.org/2000/svg" viewBox="0 0 32 32">
 <g transform="translate(0,-1020.3622)">
  <rect width="26" height="10" x="3" y="1026.36" style="fill:#ec407a;fill-opacity:1;stroke:none"/>
  <path d="m 6 1026.36 c 0 -1 0 -2 1.455 -2 l 5.091 0 c 1.455 0 1.455 1 1.455 2 l 0 1 -8 0 z" style="fill:#ec407a;fill-opacity:1;stroke:none"/>
  <path d="m 5 1028.36 22 0 0 4.968 -22 0 z" style="fill:#95989f;fill-opacity:1;stroke:none"/>
  <rect y="1027.36" x="7" height="13" width="19" style="fill:#d8d8da;fill-opacity:1;stroke:none"/>
  <rect width="19" height="13" x="6" y="1029.36" style="fill:#f9f9f9;fill-opacity:1;stroke:none"/>
  <path d="m 1 1030.36 30 0 -2.143 18 -25.714 0 z" style="fill:#f06292;fill-opacity:1;stroke:none"/>
  <path d="m 16 12 c -0.554 0 -1 0.446 -1 1 l 0 5 l -2 0 c -1 0 -1 0 0 1 l 2 2 c 1 1 1 1 2 0 l 2 -2 c 1 -1 1 -1 0 -1 l -2 0 l 0 -5 c 0 -0.554 -0.446 -1 -1 -1 z m -6.03 7 c -0.534 0 -0.969 0.446 -0.969 1 l 0 3.938 l 0 0.063 l 0 0.063 c 0 0.037 0.027 0.058 0.031 0.094 c 0.015 0.091 0.026 0.17 0.063 0.25 c 0.101 0.222 0.281 0.404 0.5 0.5 c 0.101 0.045 0.196 0.083 0.313 0.094 c 0.033 0.003 0.06 0 0.094 0 l 0.031 0 l 11.938 0 l 0.031 0 c 0.011 0 0.02 0 0.031 0 c 0.021 0 0.042 0.001 0.063 0 c 0.116 -0.011 0.211 -0.048 0.313 -0.094 c 0.115 -0.05 0.225 -0.097 0.313 -0.188 c 0.09 -0.086 0.137 -0.198 0.188 -0.313 c 0.037 -0.08 0.048 -0.159 0.063 -0.25 c 0.006 -0.034 0.029 -0.059 0.031 -0.094 l 0 -0.125 l 0 -3.938 c 0 -0.554 -0.434 -1 -0.969 -1 l -0.063 0 c -0.534 0 -0.969 0.446 -0.969 1 l 0 3 l -10 0 l 0 -3 c 0 -0.554 -0.434 -1 -0.969 -1 l -0.063 0 z" transform="translate(0,1020.3622)" style="fill:#c64077;opacity:1;fill-opacity:1;stroke:none"/>
 </g>
</svg>
